flaticon/interaction/music-player-5.svg

<svg xmlns="http://www.w3.org/2000/svg" width="32" height="32" viewBox="0 0 24 24">
    <path d="M 23.980469 17.734375 C 23.933594 17.585938 23.804688 17.476562 23.648438 17.457031 L 20.484375 17.011719 L 19.074219 14.253906 C 18.933594 13.984375 18.488281 13.984375 18.351562 14.253906 L 16.9375 17.011719 L 13.773438 17.457031 C 13.621094 17.476562 13.492188 17.585938 13.441406 17.734375 C 13.394531 17.886719 13.4375 18.046875 13.550781 18.15625 L 15.832031 20.296875 L 15.292969 23.320312 C 15.269531 23.46875 15.328125 23.625 15.453125 23.714844 C 15.578125 23.808594 15.742188 23.824219 15.878906 23.753906 L 18.710938 22.316406 L 21.542969 23.753906 C 21.601562 23.78125 21.664062 23.796875 21.730469 23.796875 C 21.8125 23.796875 21.898438 23.769531 21.972656 23.714844 C 22.09375 23.625 22.15625 23.46875 22.128906 23.316406 L 21.59375 20.296875 L 23.871094 18.15625 C 23.984375 18.046875 24.027344 17.886719 23.980469 17.734375 Z M 20.875 19.855469 C 20.773438 19.949219 20.726562 20.085938 20.75 20.222656 L 21.183594 22.65625 L 18.894531 21.496094 C 18.835938 21.46875 18.773438 21.453125 18.710938 21.453125 C 18.648438 21.453125 18.585938 21.46875 18.527344 21.496094 L 16.238281 22.65625 L 16.671875 20.222656 C 16.695312 20.085938 16.648438 19.949219 16.550781 19.855469 L 14.726562 18.144531 L 17.257812 17.789062 C 17.390625 17.769531 17.503906 17.691406 17.566406 17.570312 L 18.710938 15.332031 L 19.859375 17.570312 C 19.917969 17.691406 20.03125 17.769531 20.164062 17.789062 L 22.695312 18.144531 Z M 20.875 19.855469"/>
    <path d="M 10.578125 19.320312 L 0.8125 19.320312 L 0.8125 1.015625 L 22.78125 1.015625 L 22.78125 13.628906 C 22.78125 13.851562 22.960938 14.035156 23.1875 14.035156 C 23.410156 14.035156 23.59375 13.851562 23.59375 13.628906 L 23.59375 0.609375 C 23.59375 0.386719 23.410156 0.203125 23.1875 0.203125 L 0.40625 0.203125 C 0.183594 0.203125 0 0.386719 0 0.609375 L 0 19.730469 C 0 19.953125 0.183594 20.136719 0.40625 20.136719 L 10.578125 20.136719 C 10.800781 20.136719 10.984375 19.953125 10.984375 19.730469 C 10.984375 19.503906 10.800781 19.320312 10.578125 19.320312 Z M 10.578125 19.320312"/>
    <path d="M 12.617188 12.703125 C 12.617188 11.863281 13.40625 11.183594 14.378906 11.183594 C 14.832031 11.183594 15.269531 11.335938 15.601562 11.617188 C 15.773438 11.761719 16.03125 11.742188 16.175781 11.570312 C 16.253906 11.476562 16.28125 11.363281 16.265625 11.25 C 16.265625 11.238281 16.269531 11.226562 16.269531 11.214844 L 16.269531 4.300781 C 16.269531 4.183594 16.222656 4.070312 16.132812 3.992188 C 16.042969 3.917969 15.929688 3.878906 15.8125 3.898438 L 8.488281 4.859375 C 8.285156 4.886719 8.136719 5.058594 8.136719 5.261719 L 8.136719 13.167969 C 7.660156 12.753906 7.015625 12.496094 6.304688 12.496094 C 4.847656 12.496094 3.660156 13.570312 3.660156 14.894531 C 3.660156 16.214844 4.847656 17.289062 6.304688 17.289062 C 7.761719 17.289062 8.949219 16.214844 8.949219 14.894531 L 8.949219 7.652344 L 15.457031 6.796875 L 15.457031 10.597656 C 15.121094 10.453125 14.753906 10.371094 14.378906 10.371094 C 12.957031 10.371094 11.804688 11.414062 11.804688 12.703125 C 11.804688 13.332031 12.078125 13.925781 12.574219 14.367188 C 12.652344 14.433594 12.75 14.46875 12.84375 14.46875 C 12.957031 14.46875 13.066406 14.421875 13.148438 14.332031 C 13.296875 14.164062 13.28125 13.90625 13.113281 13.757812 C 12.792969 13.472656 12.617188 13.097656 12.617188 12.703125 Z M 6.304688 16.472656 C 5.296875 16.472656 4.472656 15.765625 4.472656 14.894531 C 4.472656 14.019531 5.296875 13.3125 6.304688 13.3125 C 7.3125 13.3125 8.136719 14.019531 8.136719 14.894531 C 8.136719 15.765625 7.3125 16.472656 6.304688 16.472656 Z M 8.949219 6.832031 L 8.949219 5.621094 L 15.457031 4.761719 L 15.457031 5.976562 Z M 8.949219 6.832031"/>
</svg>

<svg xmlns="http://www.w3.org/2000/svg" width="32" height="32" viewBox="0 0 24 24">
    <path d="M23.98 17.734a.4.4 0 0 0-.332-.277l-3.164-.445-1.41-2.758c-.14-.27-.586-.27-.722 0l-1.415 2.758-3.164.445a.411.411 0 0 0-.332.277.413.413 0 0 0 .11.422l2.281 2.14-.539 3.024a.409.409 0 0 0 .16.395c.125.094.29.11.426.039l2.832-1.438 2.832 1.438a.411.411 0 0 0 .43-.04.41.41 0 0 0 .156-.398l-.535-3.02 2.277-2.14a.413.413 0 0 0 .11-.422zm-3.105 2.121a.404.404 0 0 0-.125.368l.434 2.433-2.29-1.16a.436.436 0 0 0-.183-.043.436.436 0 0 0-.184.043l-2.289 1.16.434-2.433a.412.412 0 0 0-.121-.368l-1.824-1.71 2.53-.356a.41.41 0 0 0 .31-.219l1.144-2.238 1.148 2.238c.059.121.172.2.305.22l2.531.355zm0 0"/>
    <path d="M10.578 19.32H.813V1.016H22.78v12.613a.406.406 0 1 0 .813 0V.609a.408.408 0 0 0-.407-.406H.407A.408.408 0 0 0 0 .61V19.73c0 .223.184.407.406.407h10.172a.408.408 0 0 0 0-.817zm0 0"/>
    <path d="M12.617 12.703c0-.84.79-1.52 1.762-1.52.453 0 .89.153 1.223.434a.404.404 0 1 0 .664-.367c0-.012.004-.023.004-.035V4.3a.399.399 0 0 0-.457-.402l-7.325.96a.405.405 0 0 0-.351.403v7.906a2.79 2.79 0 0 0-1.832-.672c-1.457 0-2.645 1.074-2.645 2.399 0 1.32 1.188 2.394 2.645 2.394s2.644-1.074 2.644-2.394V7.652l6.508-.855v3.8a2.734 2.734 0 0 0-1.078-.226c-1.422 0-2.574 1.043-2.574 2.332 0 .629.273 1.223.77 1.664a.41.41 0 0 0 .574-.035.407.407 0 0 0-.036-.574 1.408 1.408 0 0 1-.496-1.055zm-6.312 3.77c-1.008 0-1.832-.707-1.832-1.578 0-.875.824-1.582 1.832-1.582s1.832.707 1.832 1.582c0 .87-.825 1.578-1.832 1.578zm2.644-9.641v-1.21l6.508-.86v1.215zm0 0"/>
</svg>
